photoEditor/BackupPhotos/DSC03049.xmp
<x:xmpmeta xmlns:x="adobe:ns:meta/" x:xmptk="Adobe XMP Core 5.6-c128 79.159124, 2016/03/18-14:01:55        ">
 <rdf:RDF xmlns:rdf="http://www.w3.org/1999/02/22-rdf-syntax-ns#">
  <rdf:Description rdf:about=""
    xmlns:tiff="http://ns.adobe.com/tiff/1.0/"
    xmlns:exif="http://ns.adobe.com/exif/1.0/"
    xmlns:xmp="http://ns.adobe.com/xap/1.0/"
    xmlns:aux="http://ns.adobe.com/exif/1.0/aux/"
    xmlns:photoshop="http://ns.adobe.com/photoshop/1.0/"
    xmlns:xmpMM="http://ns.adobe.com/xap/1.0/mm/"
    xmlns:stEvt="http://ns.adobe.com/xap/1.0/sType/ResourceEvent#"
    xmlns:dc="http://purl.org/dc/elements/1.1/"
    xmlns:crs="http://ns.adobe.com/camera-raw-settings/1.0/"
   tiff:Make="SONY"
   tiff:Model="ILCE-6000"
   tiff:Orientation="6"
   tiff:ImageWidth="6000"
   tiff:ImageLength="4000"
   exif:ExifVersion="0230"
   exif:ExposureTime="1/4000"
   exif:ShutterSpeedValue="11965784/1000000"
   exif:ExposureProgram="1"
   exif:SensitivityType="2"
   exif:RecommendedExposureIndex="160"
   exif:BrightnessValue="17184/2560"
   exif:ExposureBiasValue="0/10"
   exif:MaxApertureValue="0/10"
   exif:MeteringMode="5"
   exif:LightSource="0"
   exif:FileSource="3"
   exif:SceneType="1"
   exif:CustomRendered="0"
   exif:ExposureMode="1"
   exif:WhiteBalance="0"
   exif:SceneCaptureType="0"
   exif:Contrast="0"
   exif:Saturation="0"
   exif:Sharpness="0"
   exif:DigitalZoomRatio="16/16"
   exif:FocalPlaneXResolution="83662979/32768"
   exif:FocalPlaneYResolution="83662979/32768"
   exif:FocalPlaneResolutionUnit="3"
   exif:DateTimeOriginal="2018-03-15T15:08:04"
   exif:PixelXDimension="6000"
   exif:PixelYDimension="4000"
   xmp:CreatorTool="ILCE-6000 v3.20"
   xmp:ModifyDate="2018-03-15T15:08:04"
   xmp:CreateDate="2018-03-15T15:08:04"
   xmp:Rating="2"
   xmp:MetadataDate="2018-07-04T21:52:02-05:00"
   aux:Lens="----"
   photoshop:DateCreated="2018-03-15T15:08:04"
   photoshop:SidecarForExtension="ARW"
   photoshop:EmbeddedXMPDigest="00000000000000000000000000000000"
   xmpMM:DocumentID="DB22EE958A6F9FBBE689D25B7886467F"
   xmpMM:OriginalDocumentID="DB22EE958A6F9FBBE689D25B7886467F"
   xmpMM:InstanceID="xmp.iid:f984bcb2-168a-4b1b-b652-4627251906e0"
   dc:format="image/x-sony-arw"
   crs:Version="10.1"
   crs:ProcessVersion="6.7"
   crs:WhiteBalance="As Shot"
   crs:AutoWhiteVersion="134348800"
   crs:Temperature="5600"
   crs:Tint="+10"
   crs:Saturation="0"
   crs:Sharpness="25"
   crs:LuminanceSmoothing="0"
   crs:ColorNoiseReduction="25"
   crs:VignetteAmount="0"
   crs:ShadowTint="0"
   crs:RedHue="0"
   crs:RedSaturation="0"
   crs:GreenHue="0"
   crs:GreenSaturation="0"
   crs:BlueHue="-42"
   crs:BlueSaturation="0"
   crs:Vibrance="0"
   crs:HueAdjustmentRed="+7"
   crs:HueAdjustmentOrange="+36"
   crs:HueAdjustmentYellow="0"
   crs:HueAdjustmentGreen="0"
   crs:HueAdjustmentAqua="0"
   crs:HueAdjustmentBlue="0"
   crs:HueAdjustmentPurple="0"
   crs:HueAdjustmentMagenta="0"
   crs:SaturationAdjustmentRed="0"
   crs:SaturationAdjustmentOrange="0"
   crs:SaturationAdjustmentYellow="0"
   crs:SaturationAdjustmentGreen="0"
   crs:SaturationAdjustmentAqua="0"
   crs:SaturationAdjustmentBlue="0"
   crs:SaturationAdjustmentPurple="0"
   crs:SaturationAdjustmentMagenta="0"
   crs:LuminanceAdjustmentRed="0"
   crs:LuminanceAdjustmentOrange="0"
   crs:LuminanceAdjustmentYellow="0"
   crs:LuminanceAdjustmentGreen="0"
   crs:LuminanceAdjustmentAqua="0"
   crs:LuminanceAdjustmentBlue="0"
   crs:LuminanceAdjustmentPurple="0"
   crs:LuminanceAdjustmentMagenta="0"
   crs:SplitToningShadowHue="0"
   crs:SplitToningShadowSaturation="0"
   crs:SplitToningHighlightHue="0"
   crs:SplitToningHighlightSaturation="0"
   crs:SplitToningBalance="0"
   crs:ParametricShadows="0"
   crs:ParametricDarks="0"
   crs:ParametricLights="0"
   crs:ParametricHighlights="0"
   crs:ParametricShadowSplit="25"
   crs:ParametricMidtoneSplit="50"
   crs:ParametricHighlightSplit="75"
   crs:SharpenRadius="+1.0"
   crs:SharpenDetail="25"
   crs:SharpenEdgeMasking="0"
   crs:PostCropVignetteAmount="0"
   crs:GrainAmount="0"
   crs:ColorNoiseReductionDetail="50"
   crs:ColorNoiseReductionSmoothness="50"
   crs:LensProfileEnable="0"
   crs:LensManualDistortionAmount="0"
   crs:PerspectiveVertical="0"
   crs:PerspectiveHorizontal="0"
   crs:PerspectiveRotate="0.0"
   crs:PerspectiveScale="100"
   crs:PerspectiveAspect="0"
   crs:PerspectiveUpright="0"
   crs:PerspectiveX="0.00"
   crs:PerspectiveY="0.00"
   crs:AutoLateralCA="0"
   crs:Exposure2012="+0.20"
   crs:Contrast2012="0"
   crs:Highlights2012="0"
   crs:Shadows2012="+50"
   crs:Whites2012="0"
   crs:Blacks2012="0"
   crs:Clarity2012="0"
   crs:DefringePurpleAmount="0"
   crs:DefringePurpleHueLo="30"
   crs:DefringePurpleHueHi="70"
   crs:DefringeGreenAmount="0"
   crs:DefringeGreenHueLo="40"
   crs:DefringeGreenHueHi="60"
   crs:Dehaze="0"
   crs:ToneMapStrength="0"
   crs:ConvertToGrayscale="False"
   crs:ToneCurveName="Medium Contrast"
   crs:ToneCurveName2012="Linear"
   crs:CameraProfile="Adobe Standard"
   crs:CameraProfileDigest="676E7AD895BA61520ADA463D1448F221"
   crs:LensProfileSetup="LensDefaults"
   crs:UprightVersion="151388160"
   crs:UprightCenterMode="0"
   crs:UprightCenterNormX="0.5"
   crs:UprightCenterNormY="0.5"
   crs:UprightFocalMode="0"
   crs:UprightFocalLength35mm="35"
   crs:UprightPreview="False"
   crs:UprightTransformCount="6"
   crs:UprightFourSegmentsCount="0"
   crs:HasSettings="True"
   crs:AlreadyApplied="False"
   crs:RawFileName="DSC03049.ARW">
   <exif:ISOSpeedRatings>
    <rdf:Seq>
     <rdf:li>160</rdf:li>
    </rdf:Seq>
   </exif:ISOSpeedRatings>
   <exif:Flash
    exif:Fired="False"
    exif:Return="0"
    exif:Mode="2"
    exif:Function="False"
    exif:RedEyeMode="False"/>
   <xmpMM:History>
    <rdf:Seq>
     <rdf:li
      stEvt:action="saved"
      stEvt:instanceID="xmp.iid:f984bcb2-168a-4b1b-b652-4627251906e0"
      stEvt:when="2018-07-04T21:52:02-05:00"
      stEvt:softwareAgent="Adobe Photoshop Lightroom 6.14 (Macintosh)"
      stEvt:changed="/metadata"/>
    </rdf:Seq>
   </xmpMM:History>
   <crs:ToneCurve>
    <rdf:Seq>
     <rdf:li>0, 0</rdf:li>
     <rdf:li>32, 22</rdf:li>
     <rdf:li>64, 56</rdf:li>
     <rdf:li>128, 128</rdf:li>
     <rdf:li>192, 196</rdf:li>
     <rdf:li>255, 255</rdf:li>
    </rdf:Seq>
   </crs:ToneCurve>
   <crs:ToneCurveRed>
    <rdf:Seq>
     <rdf:li>0, 0</rdf:li>
     <rdf:li>255, 255</rdf:li>
    </rdf:Seq>
   </crs:ToneCurveRed>
   <crs:ToneCurveGreen>
    <rdf:Seq>
     <rdf:li>0, 0</rdf:li>
     <rdf:li>255, 255</rdf:li>
    </rdf:Seq>
   </crs:ToneCurveGreen>
   <crs:ToneCurveBlue>
    <rdf:Seq>
     <rdf:li>0, 0</rdf:li>
     <rdf:li>255, 255</rdf:li>
    </rdf:Seq>
   </crs:ToneCurveBlue>
   <crs:ToneCurvePV2012>
    <rdf:Seq>
     <rdf:li>0, 0</rdf:li>
     <rdf:li>255, 255</rdf:li>
    </rdf:Seq>
   </crs:ToneCurvePV2012>
   <crs:ToneCurvePV2012Red>
    <rdf:Seq>
     <rdf:li>0, 0</rdf:li>
     <rdf:li>255, 255</rdf:li>
    </rdf:Seq>
   </crs:ToneCurvePV2012Red>
   <crs:ToneCurvePV2012Green>
    <rdf:Seq>
     <rdf:li>0, 0</rdf:li>
     <rdf:li>255, 255</rdf:li>
    </rdf:Seq>
   </crs:ToneCurvePV2012Green>
   <crs:ToneCurvePV2012Blue>
    <rdf:Seq>
     <rdf:li>0, 0</rdf:li>
     <rdf:li>255, 255</rdf:li>
    </rdf:Seq>
   </crs:ToneCurvePV2012Blue>
  </rdf:Description>
 </rdf:RDF>
</x:xmpmeta>
